X: 87
T:Dashing White Sargeant
M:2/4
L:1/8
R:Reel
K:D
FE||:DD D/E/F/G/|A/B/A/F/ Af/e/|dB AF|BE E/G/F/E/|!
DD D/E/F/G/|A/B/A/F/ Af|ed cB|[1 A&gt;B A/G/F/E/:||[2 A2-AE||!
A&gt;B c&gt;d|ec A2|B&gt;c d&gt;e|fd B2|cA/A/ dA/A/|eA/A/ fA/A/|!
gf ed|cB AG|Fd d/c/d/e/|dA A2|Be e/d/e/f/|eB B2|!
Ad d/c/d/e/|fd d/c/d/e/|f2 a2|dc/B/ A/G/F/E/||"2nd time" [d3d'3]||

